flaticon/medical/tonsils-tester.svg

<svg xmlns="http://www.w3.org/2000/svg" width="32" height="32" viewBox="0 0 24 24">
    <path d="M 23.296875 0.703125 C 22.84375 0.25 22.242188 0 21.601562 0 C 20.960938 0 20.355469 0.25 19.902344 0.703125 L 12.546875 8.058594 C 12.15625 8.449219 11.914062 8.957031 11.859375 9.503906 L 0.546875 20.816406 C -0.179688 21.542969 -0.179688 22.726562 0.546875 23.453125 C 0.910156 23.820312 1.386719 24 1.863281 24 C 2.34375 24 2.820312 23.820312 3.183594 23.453125 L 14.496094 12.140625 C 15.042969 12.085938 15.550781 11.84375 15.941406 11.453125 L 23.296875 4.097656 C 23.75 3.644531 24 3.042969 24 2.402344 C 24 1.757812 23.75 1.15625 23.296875 0.703125 Z M 12.746094 11.625 C 12.765625 11.640625 12.785156 11.65625 12.804688 11.671875 C 12.855469 11.710938 12.90625 11.746094 12.960938 11.777344 C 12.980469 11.792969 13.003906 11.804688 13.023438 11.820312 C 13.082031 11.851562 13.140625 11.882812 13.199219 11.910156 C 13.214844 11.921875 13.230469 11.929688 13.246094 11.9375 C 13.324219 11.96875 13.402344 12 13.480469 12.027344 L 6.910156 18.59375 L 5.96875 16.523438 L 11.972656 10.523438 C 11.972656 10.523438 11.972656 10.527344 11.976562 10.527344 C 12 10.605469 12.03125 10.679688 12.0625 10.75 C 12.070312 10.769531 12.078125 10.785156 12.089844 10.804688 C 12.117188 10.863281 12.148438 10.917969 12.179688 10.972656 C 12.195312 10.996094 12.207031 11.019531 12.222656 11.042969 C 12.253906 11.09375 12.289062 11.144531 12.328125 11.191406 C 12.34375 11.214844 12.359375 11.234375 12.375 11.257812 C 12.429688 11.324219 12.484375 11.390625 12.546875 11.449219 C 12.609375 11.511719 12.675781 11.570312 12.746094 11.625 Z M 5.355469 20.148438 L 4.414062 18.078125 L 5.367188 17.128906 L 6.308594 19.199219 Z M 3.804688 21.703125 L 2.859375 19.632812 L 3.8125 18.683594 L 4.753906 20.753906 Z M 2.617188 22.890625 C 2.203125 23.304688 1.527344 23.304688 1.109375 22.890625 C 0.695312 22.472656 0.695312 21.796875 1.109375 21.382812 L 2.257812 20.234375 L 3.199219 22.308594 Z M 22.730469 3.53125 L 15.378906 10.886719 C 15.082031 11.179688 14.703125 11.328125 14.316406 11.347656 L 14.308594 11.347656 C 13.855469 11.363281 13.429688 11.203125 13.113281 10.886719 C 13.035156 10.808594 12.96875 10.722656 12.910156 10.632812 C 12.90625 10.632812 12.90625 10.628906 12.90625 10.628906 C 12.730469 10.359375 12.640625 10.042969 12.652344 9.707031 L 12.652344 9.703125 C 12.664062 9.3125 12.816406 8.921875 13.113281 8.625 L 20.46875 1.269531 C 20.78125 0.957031 21.191406 0.800781 21.601562 0.800781 C 22.011719 0.800781 22.417969 0.957031 22.730469 1.269531 C 23.355469 1.890625 23.355469 2.90625 22.730469 3.53125 Z M 22.730469 3.53125"/>
</svg>

<svg xmlns="http://www.w3.org/2000/svg" width="32" height="32" viewBox="0 0 24 24">
    <path d="M23.297.703A2.382 2.382 0 0 0 21.602 0c-.641 0-1.247.25-1.7.703L12.547 8.06c-.39.39-.633.898-.688 1.445L.547 20.816A1.867 1.867 0 0 0 1.863 24c.48 0 .957-.18 1.32-.547l11.313-11.312a2.374 2.374 0 0 0 1.445-.688l7.356-7.355A2.382 2.382 0 0 0 24 2.402c0-.644-.25-1.246-.703-1.699zm-10.55 10.922l.058.047c.05.039.101.074.156.105.02.016.043.028.062.043.059.032.118.063.176.09.016.012.031.02.047.027.078.032.156.063.234.09l-6.57 6.567-.941-2.07 6.004-6s0 .003.004.003a1.881 1.881 0 0 0 .113.278c.027.058.058.113.09.168.015.023.027.047.043.07.03.05.066.102.105.148l.047.067c.055.066.11.133.172.191.062.063.129.121.2.176zm-7.392 8.523l-.94-2.07.952-.95.942 2.071zm-1.55 1.555l-.946-2.07.954-.95.94 2.07zm-1.188 1.188a1.07 1.07 0 0 1-1.508 0 1.07 1.07 0 0 1 0-1.508l1.149-1.149.941 2.075zM22.73 3.53l-7.351 7.356a1.613 1.613 0 0 1-1.063.46h-.007a1.591 1.591 0 0 1-1.196-.46 1.566 1.566 0 0 1-.203-.254c-.004 0-.004-.004-.004-.004a1.573 1.573 0 0 1-.254-.922v-.004c.012-.39.164-.781.461-1.078L20.47 1.27a1.597 1.597 0 0 1 2.261 0 1.598 1.598 0 0 1 0 2.261zm0 0"/>
</svg>
